material/.icons/material/gold.svg

<svg xmlns="http://www.w3.org/2000/svg" viewBox="0 0 24 24"><path d="M1 22l1.5-5h7l1.5 5H1m12 0l1.5-5h7l1.5 5H13m-7-7l1.5-5h7l1.5 5H6m17-8.95l-3.86 1.09L18.05 11l-1.09-3.86-3.86-1.09 3.86-1.09 1.09-3.86 1.09 3.86L23 6.05z"/></svg>

<?xml version="1.0" encoding="UTF-8"?><!DOCTYPE svg PUBLIC "-//W3C//DTD SVG 1.1//EN" "http://www.w3.org/Graphics/SVG/1.1/DTD/svg11.dtd"><svg xmlns="http://www.w3.org/2000/svg" xmlns:xlink="http://www.w3.org/1999/xlink" version="1.1" id="mdi-gold" width="24" height="24" viewBox="0 0 24 24"><path d="M1 22L2.5 17H9.5L11 22H1M13 22L14.5 17H21.5L23 22H13M6 15L7.5 10H14.5L16 15H6M23 6.05L19.14 7.14L18.05 11L16.96 7.14L13.1 6.05L16.96 4.96L18.05 1.1L19.14 4.96L23 6.05Z" /></svg>
